src/assets/svg/iconTwo.svg

<svg width="316" height="316" viewBox="0 0 316 316" fill="none" xmlns="http://www.w3.org/2000/svg">
<g opacity="0.2">
<path fill-rule="evenodd" clip-rule="evenodd" d="M48.9788 142.186C116.839 110.078 162.09 88.9098 184.731 78.6826C249.377 49.4818 262.81 44.4093 271.565 44.2418C273.491 44.2049 277.796 44.7232 280.585 47.1809C282.94 49.2562 283.588 52.0595 283.898 54.0271C284.209 55.9946 284.595 60.4767 284.288 63.979C280.785 103.953 265.626 200.958 257.915 245.729C254.652 264.674 248.227 271.026 242.006 271.647C228.488 272.998 218.223 261.945 205.13 252.625C184.643 238.04 173.068 228.961 153.182 214.728C130.199 198.281 145.098 189.241 158.195 174.467C161.623 170.6 221.184 111.766 222.337 106.429C222.481 105.761 222.615 103.273 221.254 101.96C219.892 100.646 217.884 101.095 216.434 101.452C214.379 101.959 181.65 125.452 118.246 171.932C108.955 178.86 100.541 182.236 93.0014 182.059C84.6899 181.864 68.702 176.955 56.8166 172.76C42.2387 167.613 30.6524 164.893 31.6613 156.153C32.1868 151.6 37.9593 146.945 48.9788 142.186Z" fill="#748BFF"/>
</g>
</svg>

<svg xmlns="http://www.w3.org/2000/svg" width="316" height="316" fill="none"><path fill="#748BFF" fill-rule="evenodd" d="M48.979 142.186c67.86-32.108 113.111-53.276 135.752-63.503 64.646-29.201 78.079-34.274 86.834-34.441 1.926-.037 6.231.481 9.02 2.939 2.355 2.075 3.003 4.879 3.313 6.846.311 1.968.697 6.45.39 9.952-3.503 39.974-18.662 136.979-26.373 181.75-3.263 18.945-9.688 25.297-15.909 25.918-13.518 1.351-23.783-9.702-36.876-19.022-20.487-14.585-32.062-23.664-51.948-37.897-22.983-16.447-8.084-25.487 5.013-40.261 3.428-3.867 62.989-62.701 64.142-68.038.144-.668.278-3.156-1.083-4.469-1.362-1.314-3.37-.865-4.82-.508-2.055.507-34.784 24-98.188 70.48-9.291 6.928-17.705 10.304-25.245 10.127-8.311-.195-24.299-5.104-36.184-9.299-14.578-5.147-26.165-7.867-25.156-16.607.526-4.553 6.298-9.208 17.318-13.967Z" clip-rule="evenodd" opacity=".2"/></svg>
